assets/images/icon-github.svg

<svg height="20" viewBox="0 0 20 20" width="20" xmlns="http://www.w3.org/2000/svg"><path d="m10.4994168 1c-5.24570287 0-9.4994168 4.13137845-9.4994168 9.2286146 0 4.0764294 2.72170043 7.5348231 6.49720688 8.7555993.47529159.0844063.64849601-.2005359.64849601-.4452576 0-.2186634-.00816452-.799311-.01282996-1.5691647-2.64238797.5574217-3.19990792-1.2372043-3.19990792-1.2372043-.43213628-1.0661256-1.05497238-1.3493683-1.05497238-1.3493683-.86252302-.5727168.06531615-.5613871.06531615-.5613871.95349908.0657123 1.45503376.9511291 1.45503376.9511291.84736035 1.4099823 2.22308165 1.0026792 2.76485574.7670213.08631062-.5965092.33124616-1.0032458.60300798-1.2338054-2.10936157-.2328255-4.3271946-1.0247722-4.3271946-4.56077439 0-1.00721114.37031922-1.830881.97799264-2.47610794-.09797422-.23339201-.42397176-1.17149193.0927256-2.44211881 0 0 .79779005-.24812063 2.61264579.94603072.75755065-.20506774 1.57050338-.30703512 2.37820751-.31100052.8065377.0039654 1.6194905.10593278 2.3782075.31100052 1.8136893-1.19415135 2.6097299-.94603072 2.6097299-.94603072.5184469 1.27062688.1924493 2.2087268.0944751 2.44211881.6088398.64522694.9768263 1.4688968.9768263 2.47610794 0 3.54506599-2.2213321 4.32511649-4.3376919 4.55341009.3411603.2849422.644997.8480288.644997 1.7090867 0 1.2332388-.0116636 2.2285538-.0116636 2.531057 0 .2469876.1708717.5341958.6531614.4441246 3.7714242-1.2230421 6.4913751-4.6791699 6.4913751-8.7544663 0-5.09723615-4.2537139-9.2286146-9.5005832-9.2286146" fill="#fff" fill-rule="evenodd"/></svg>

<svg xmlns="http://www.w3.org/2000/svg" width="20" height="20" viewBox="0 0 20 20">
  <path fill="#FFF" fill-rule="evenodd" d="M10.4994168,1 C5.25371393,1 1,5.13137845 1,10.2286146 C1,14.305044 3.72170043,17.7634377 7.49720688,18.9842139 C7.97249847,19.0686202 8.14570289,18.783678 8.14570289,18.5389563 C8.14570289,18.3202929 8.13753837,17.7396453 8.13287293,16.9697916 C5.49048496,17.5272133 4.93296501,15.7325873 4.93296501,15.7325873 C4.50082873,14.6664617 3.87799263,14.383219 3.87799263,14.383219 C3.01546961,13.8105022 3.94330878,13.8218319 3.94330878,13.8218319 C4.89680786,13.8875442 5.39834254,14.772961 5.39834254,14.772961 C6.24570289,16.1829433 7.62142419,15.7756402 8.16319828,15.5399823 C8.2495089,14.9434731 8.49444444,14.5367365 8.76620626,14.3061769 C6.65684469,14.0733514 4.43901166,13.2814047 4.43901166,9.74540251 C4.43901166,8.73819137 4.80933088,7.91452151 5.4170043,7.26929457 C5.31903008,7.03590256 4.99303254,6.09780264 5.5097299,4.82717576 C5.5097299,4.82717576 6.30751995,4.57905513 8.12237569,5.77320648 C8.87992634,5.56813874 9.69287907,5.46617136 10.5005832,5.46220596 C11.3071209,5.46617136 12.1200737,5.56813874 12.8787907,5.77320648 C14.69248,4.57905513 15.4885206,4.82717576 15.4885206,4.82717576 C16.0069675,6.09780264 15.6809699,7.03590256 15.5829957,7.26929457 C16.1918355,7.91452151 16.559822,8.73819137 16.559822,9.74540251 C16.559822,13.2904685 14.3384899,14.070519 12.2221301,14.2988126 C12.5632904,14.5837548 12.8671271,15.1468414 12.8671271,16.0078993 C12.8671271,17.2411381 12.8554635,18.2364531 12.8554635,18.5389563 C12.8554635,18.7859439 13.0263352,19.0731521 13.5086249,18.9830809 C17.2800491,17.7600388 20,14.303911 20,10.2286146 C20,5.13137845 15.7462861,1 10.4994168,1"/>
</svg>
